src/components/icons/vatten_stopp.svg

<?xml version="1.0" encoding="UTF-8"?>
<svg width="40px" height="32px" viewBox="0 0 40 32" version="1.1" xmlns="http://www.w3.org/2000/svg" xmlns:xlink="http://www.w3.org/1999/xlink">
    <!-- Generator: Sketch 50 (54983) - http://www.bohemiancoding.com/sketch -->
    <title>Vattenavstangning</title>
    <desc>Created with Sketch.</desc>
    <defs></defs>
    <g id="Page-1" stroke="none" stroke-width="1" fill="none" fill-rule="evenodd">
        <g id="disturbances" transform="translate(-48.000000, -380.000000)" fill="#000000">
            <g id="Vattenavstangning" transform="translate(48.000000, 380.000000)">
                <polyline id="Fill-1" points="9.34685598 24.9656737 8.35999777 24 5.25785058 27.0342069 2.1557034 24 1.168357 24.9656737 4.27050418 27.9997612 1.168357 31.0342069 2.1557034 32 5.25785058 28.9656737 8.35999777 32 9.34685598 31.0342069 6.24495289 27.9997612 9.34685598 24.9656737"></polyline>
                <path d="M37.3893508,2.99272458 L30.8614562,2.48174823 C30.5171189,2.42032462 30.5370134,2.32621981 30.5203721,2.2729931 C30.5411425,2.2211503 30.5001023,2.14567483 30.8339293,2.09202232 L37.3888503,1.57827818 C37.9208715,1.59158486 38.2918599,1.93010669 38.2928609,2.28587397 C38.2918599,2.64164125 37.921372,2.97984371 37.3893508,2.99272458 Z M27.5156788,3.35328226 L27.5156788,1.21761405 L28.5650818,1.21761405 L28.565332,3.35328226 L27.5156788,3.35328226 Z M25.2196797,2.48174823 L18.6920353,2.99272458 C18.159889,2.97984371 17.7896514,2.64164125 17.7886504,2.28587397 C17.7896514,1.93010669 18.1602644,1.59158486 18.6922856,1.57827818 L25.247582,2.09202232 C25.5811588,2.14567483 25.5403688,2.2211503 25.5608889,2.2729931 C25.5442476,2.32621981 25.564017,2.42032462 25.2196797,2.48174823 Z M37.3632002,0.360131869 L37.3321698,0.360131869 L30.6889122,0.880156753 C30.43654,0.898360285 30.2035618,0.959570993 29.996609,1.05122737 L29.996609,0 L26.0844017,0 L26.0844017,1.05101447 C25.8775741,0.959570993 25.6444708,0.898253831 25.3922237,0.880156753 L18.7493415,0.360131869 L18.7180608,0.360131869 C17.4469407,0.361941577 16.3633792,1.19217168 16.356998,2.28587397 C16.3633792,3.37904398 17.4469407,4.2096999 18.7180608,4.21140316 L18.7502173,4.21140316 L25.3934749,3.69095246 L25.414996,3.68861048 C25.6593604,3.66348748 25.8844559,3.60004125 26.0844017,3.50881068 L26.0844017,4.57142857 L29.996609,4.57142857 L29.996609,3.50881068 C30.1968052,3.60004125 30.4219007,3.66348748 30.666265,3.68861048 L30.6880364,3.69095246 L37.3309186,4.21140316 L37.3632002,4.21140316 C38.6341952,4.2096999 39.7178818,3.37904398 39.7241379,2.28587397 C39.7178818,1.19217168 38.6341952,0.361941577 37.3632002,0.360131869 Z" id="Fill-2"></path>
                <path d="M9.05079637,21.1886624 L9.05079637,20.0841318 C9.04958768,18.8134977 9.5984541,17.6567305 10.4977199,16.801355 C11.3943266,15.9541129 12.6149833,15.4339227 13.9571134,15.4350683 L36.7961691,15.4350683 L36.7961691,8.52505053 L13.9594099,8.52505053 C7.2202344,8.54028622 1.77592915,13.7001465 1.75997444,20.0851628 L1.75997444,21.1886624 L9.05079637,21.1886624 Z M0,22.8571429 L0,20.0832154 C0.0183720977,12.779017 6.24832625,6.87455508 13.9571134,6.85714286 L38.5557809,6.85714286 L38.5557809,17.1034342 L13.9575969,17.1034342 C13.0909657,17.106298 12.3407314,17.4226964 11.7421878,17.9809186 C11.1476329,18.5530017 10.814276,19.264039 10.8106499,20.0851628 L10.8106499,22.8571429 L0,22.8571429 Z" id="Fill-3"></path>
            </g>
        </g>
    </g>
</svg>

<svg width="40" height="32" xmlns="http://www.w3.org/2000/svg"><g fill="#000" fill-rule="evenodd"><polyline points="9.34685598 24.9656737 8.35999777 24 5.25785058 27.0342069 2.1557034 24 1.168357 24.9656737 4.27050418 27.9997612 1.168357 31.0342069 2.1557034 32 5.25785058 28.9656737 8.35999777 32 9.34685598 31.0342069 6.24495289 27.9997612 9.34685598 24.9656737"/><path d="M37.39 2.993l-6.529-.511c-.344-.062-.324-.156-.34-.209.02-.052-.02-.127.313-.181l6.555-.514c.532.014.903.352.904.708-.001.356-.372.694-.904.707zm-9.874.36V1.218h1.05v2.135h-1.05zm-2.296-.871l-6.528.51c-.532-.012-.902-.35-.903-.706 0-.356.371-.694.903-.708l6.556.514c.333.054.292.13.313.181-.017.053.003.147-.341.209zM37.363.36h-.03l-6.644.52c-.252.018-.485.08-.692.171V0h-3.913v1.051a2.078 2.078 0 0 0-.692-.17L18.75.36h-.03c-1.272 0-2.356.831-2.362 1.925.006 1.093 1.09 1.924 2.361 1.925h.032l6.643-.52.022-.002c.244-.026.47-.089.67-.18V4.57h3.912V3.51c.2.091.425.154.67.18l.021.002 6.643.52h.032c1.271-.001 2.355-.832 2.361-1.925-.006-1.094-1.09-1.924-2.36-1.926zM9.05 21.189v-1.105c0-1.27.548-2.427 1.448-3.283a5.017 5.017 0 0 1 3.46-1.366h22.838v-6.91H13.96C7.22 8.54 1.776 13.7 1.76 20.085v1.104h7.29zM0 22.857v-2.774C.018 12.78 6.248 6.875 13.957 6.857h24.599v10.246H13.958a3.192 3.192 0 0 0-2.216.878c-.594.572-.928 1.283-.931 2.104v2.772H0z"/></g></svg>
